X: 13984
T: Francis O'Connor's
R: reel
M: 4/4
K: Dmajor
D2FA EAGE|EDFA dAde|fdAd faaf|abaf gece|
fdec dAFA|defe dcBA|GFEF GABd|1 cAGE EDCE:|2 cAGE EDD2||
dBAB defg|adfa g2fe|dfaf g2fg|afdf efge|
faa2 faba|afdf edBe|dBAF A2 (3Bcd|cAGE EDD2:|

